X: 26
T: Praeludia organi op. 5 – Andante
C: Franciszek Walczyński
%%abc-version 2.0
%%abcx-abcm2ps-target-version 5.9.1 (29 Sep 2008)
%%abc-creator hum2abc beta
%%abcx-conversion-date 2021/10/04 07:38:42
%%abc-edited-by Andrzej Borzym
%%abc-edited-by Krzysztof Stępień
%%abcx-initial-encoding-date 2021-07-26
%%humdrum-veritas 1641667487
%%humdrum-veritas-data 1661338019
%%linebreak <none>
%%barnumbers 0
L: 1/4
M: C
N: Derived from pl-kozmzk--mzk-m-159--015_walczynski-franciszek--praeludia-organi-op-5-andante.krn
Q: "15. Andante."
%%staves {1 2}
V: 1 clef=treble
V: 2 clef=bass
K: C
[V:1] ABcf & z4 | 
[V:2] z4 & z4 | 
[V:1] edcB & z4 | 
[V:2] z4 & z4 | 
[V:1] A^GAd & A,B,CF | 
[V:2] z4 & z4 | 
[V:1] cBA^G & EDCB, | 
[V:2] z4 & z4 | 
[V:1] AcBA- & CA,D^D | 
[V:2] z4 & z4 | 
[V:1] A^GAB & E2^FG | 
[V:2] z4 & z4 | 
[V:1] cded & A3A- | 
[V:2] A,B,CF & z4 | 
[V:1] cf!accent!e3/d/ & AA2^G | 
[V:2] EDCB, & z4 | 
[V:1] cdcB & AFED | 
[V:2] A,4- & z4 | 
[V:1] A3A- & CDED | 
[V:2] A,4- & A,,B,,C,F, | 
[V:1] A^GAB & CFE2- | 
[V:2] A,B,A,^G, & E,D,C,B,, | 
[V:1] cdcB & EA2^G | 
[V:2] A,FED & A,,4- | 
[V:1] A4- & AFED | 
[V:2] CDCB, & A,,4- | 
[V:1] A4- & CDCB, | 
[V:2] A,F,E,D, & A,,4- | 
[V:1] !fermata!A4 & A,4 |]  
[V:2] !fermata!C,4 & A,,4 |]  


